X:31
T:She'll Be Comin' Round The Mountain
C:Stephen Foster
R:Reel
M:4/4
L:1/8
K:G
DE|:GGGG EDB,D|G6GA|BBBB dBAG|A6dd|
BBBB AGGG|EEEE AGGE|DDDD BAEF|1G6DE:|2G6|]
